X:1
T:Title
%%score ( 1 2 3 ) { 4 | ( 5 6 ) }
L:1/8
Q:1/4=112
M:4/4
K:D
V:1 treble nm="Grand Piano, Unnamed-000"
V:2 treble 
V:3 treble 
V:4 bass nm="Choir Pad, Salzburg, 77.77 D"
V:5 bass 
V:6 bass 
V:1
 [DA]2 [Dd]2 [DA]2 [DB]2 | A4 z4 | z2 A2 G2 z2 | [DE]2 [CE]2 D4 | [DA]2 [Dd]2 [DA]2 [DB]2 | A4 z4 | %6
w: By~Jakob~Hintze~(1622\-1702) * * *||||||
 z2 A2 G2 z2 | [DE]2 [CE]2 D4 | z4 .F2 z2 | [FA]2 ^G-[DG] [CA]4 | B-[FB-]Bc [Fd]2 [Fd]2 | %11
w: |||||
 [Fc]2 c-[Ec] [DB]4 | [DF]2 [DF]2 [DB]2 [CA]2 | [DA]2 [D^G]2 [CA]4 | z2 A2 G2 z2 | %15
w: ||||
 [DE]2 [CE]2 D4- | D4 z4 |] %17
w: ||
V:2
 x8 | D2 z G [DF]4 | [DA]2 DC B,C [DF]2 | x8 | x8 | D2 z G [DF]4 | [DA]2 DC B,C [DF]2 | x8 | %8
 [CE]2 [CE]2 D-[D^G] [CA]2 | z2 .E2 z4 | .E2 G2 z4 | z2 .F2 z4 | x8 | x8 | [DB]2 DC B,C [DF]2 | %15
 x8 | x8 |] %17
V:3
 x8 | z2 D2 z4 | x8 | x8 | x8 | z2 C2 z4 | x8 | x8 | x8 | x8 | x8 | x8 | x8 | x8 | x8 | x8 | x8 |] %17
V:4
 F,2 F,G, A,2 G,F, | E,D, E,2 D,4 | F,2 F,2 G,2 A,2 | B,2 A,2 F,4 | F,2 F,G, A,2 G,F, | %5
 E,D, E,2 D,4 | F,2 F,2 G,2 A,2 | B,2 A,2 F,4 | A,2 A,2 A,2 A,2 | B,2 B,2 A,4 | .G,4 B,2 B,2 | %11
 B,2 ^A,2 B,4 | A,2 A,2 G,F, E,2 | D,F,E,D, E,4 | G,2 F,2 G,2 A,2 | B,2 A,2 F,4- | F,4 z4 |] %17
V:5
 D,2 B,,2 F,,2 G,,2 | A,,2 A,,2 z4 | D,2 D,2 E,2 F,2 | G,2 z2 D,4 | D,2 B,,2 F,,2 G,,2 | %5
 A,,2 A,,2 z4 | D,2 D,2 E,2 F,2 | G,2 z2 D,4 | A,,2 A,,2 D,2 F,E, | D,2 E,2 A,,4 | z2 E,2 z4 | %11
 F,2 F,2 B,,4 | D,2 D,2 G,,2 A,,2 | B,,2 B,,2 A,,4 | G,,2 D,2 E,2 F,2 | G,2 z2 D,4- | D,4 z4 |] %17
V:6
 x8 | x8 | x8 | x8 | x8 | x8 | x8 | x8 | x8 | x8 | E,2 z A, B,,C,D,E, | x8 | x8 | x8 | x8 | x8 | %16
 x8 |] %17

